modules/linearicons/icons/arrow-left-circle.svg

<?xml version="1.0" encoding="utf-8"?>
<!-- Generated by IcoMoon.io -->
<!DOCTYPE svg PUBLIC "-//W3C//DTD SVG 1.1//EN" "http://www.w3.org/Graphics/SVG/1.1/DTD/svg11.dtd">
<svg version="1.1" xmlns="http://www.w3.org/2000/svg" xmlns:xlink="http://www.w3.org/1999/xlink" width="20" height="20" viewBox="0 0 20 20">
<path fill="#000000" d="M2.782 3.782c1.794-1.794 4.18-2.782 6.718-2.782s4.923 0.988 6.718 2.782 2.782 4.18 2.782 6.717-0.988 4.923-2.782 6.718-4.18 2.782-6.718 2.782-4.923-0.988-6.718-2.782-2.782-4.18-2.782-6.718 0.988-4.923 2.782-6.717zM9.5 19c4.687 0 8.5-3.813 8.5-8.5s-3.813-8.5-8.5-8.5c-4.687 0-8.5 3.813-8.5 8.5s3.813 8.5 8.5 8.5z"></path>
<path fill="#000000" d="M3.647 10.147l4-4c0.195-0.195 0.512-0.195 0.707 0s0.195 0.512 0 0.707l-3.147 3.146h10.293c0.276 0 0.5 0.224 0.5 0.5s-0.224 0.5-0.5 0.5h-10.293l3.146 3.147c0.195 0.195 0.195 0.512 0 0.707-0.098 0.098-0.226 0.146-0.353 0.146s-0.256-0.049-0.353-0.147l-4-4c-0.195-0.195-0.195-0.512 0-0.707z"></path>
</svg>

<svg xmlns="http://www.w3.org/2000/svg" width="20" height="20"><path d="M2.782 3.782C4.576 1.988 6.962 1 9.5 1s4.923.988 6.718 2.782S19 7.962 19 10.499s-.988 4.923-2.782 6.718-4.18 2.782-6.718 2.782-4.923-.988-6.718-2.782S0 13.037 0 10.499s.988-4.923 2.782-6.717zM9.5 19c4.687 0 8.5-3.813 8.5-8.5S14.187 2 9.5 2C4.813 2 1 5.813 1 10.5S4.813 19 9.5 19z"/><path d="M3.647 10.147l4-4a.5.5 0 0 1 .707.707L5.207 10H15.5a.5.5 0 0 1 0 1H5.207l3.146 3.147a.5.5 0 0 1-.706.706l-4-4a.5.5 0 0 1 0-.707z"/></svg>
